X: 1
T: Concertina, The
M: 4/4
L: 1/8
R: hornpipe
K: Gmaj
D/E/F|:GABc defa|(3gag dc BGDG|FGAB c/c/dec|BGAG FDBA|
|GABc defa|{a}gedc BGAG2|FGAB cAGF|1 DG{A}GF G2 D/E/F:|2 DG{A}GF GABc||
|:d2 (3ed^c d=cBc|defa gedB|~c B ceag|fd^cd =cAFA|
|dBA/B/c dcBc|defa gedc|B/c/dgd cAGF|1 DAGF GABc:|2 DG{A}GF G2 D/E/F||
